X:144
M:3/4
L:1/4
K:G
B B B | A2 B | c2 F | G3 | D D D | B2 A | A3 | c c B | A2 G | F2 E | D3 | !sintro!D E G | B2 A | G3 !eintro!|]
